!!!!SEGMENT: pl-gd--ee-1638--005-001_marenzio-luca--il-primo-libro-de-madrigali-spirituali-a-cinque-voci-gratia-renda-al-signor.krn
!!!cenid: 15xx:954
!!!COM: Marenzio, Luca
!!!COM-rismID: pe30003955
!!!CDT: ~1553-1599/08/22
!!!CNT: Italian
!!!GTL: Il Primo libro de madrigali spirituali a cinque voci
!!!OTL: Gratia renda al Signor
!!!OMV: 001
!!!PDT: 1588
!!!AGN:
!!!SMS-siglum: PL-GD
!!!SMS-shelfmark: Ee 1638
!!!SMS-shelfwork: 005-001 G
!!!SMS-variant:
!!!SMS-altvar:
!!!NIFC-rismSourceID: 990039269
!!!NIFC-islandoraID: pl-gd:57883
!!!URL-pdf-islandora: https://repozytorium.nifc.pl/islandora/object/pl-gd%3A57883/datastream/PDF/view
!!!URL-scan: https://polish.musicsources.pl/pl/lokalizacje/galeria/klocki-introligatorskie/655 @EN{Scan on Polish Music Sources Website} @PL{Skany w portalu Dziedzictwo Muzyki Polskiej w otwartym dostępie}
!!!ONB-nifc: UWAGA: zbiór na stronach: Canto: s. 666-677, Alto: s. 514-525, Tenore: s. 362-373, Bassus: s. 210-221, Quinto: s. 58-69. Uwaga: utwory podzielone wg tytułów w spisach treści dostępnych na końcu każdej księgi głosowej.
!!!AIN: 2 alto 1 bass 1 soprn 1 tenor
!!!key: G:mix
**kern	**text	**mod-text	**kern	**text	**mod-text	**kern	**text	**mod-text	**kern	**text	**mod-text	**kern	**text	**mod-text
*part4	*part4	*part4	*part3	*part3	*part3	*part5	*part5	*part5	*part2	*part2	*part2	*part1	*part1	*part1
*staff5	*staff5	*staff5	*staff4	*staff4	*staff4	*staff3	*staff3	*staff3	*staff2	*staff2	*staff2	*staff1	*staff1	*staff1
*I"BASSO	*	*	*I"TENORE	*	*	*I"QVINTO	*	*	*I"ALTO	*	*	*I"CANTO	*	*
*mI"Basso	*	*	*mI"Tenore II	*	*	*mI"Tenore I	*	*	*mI"Alto	*	*	*mI"Soprano	*	*
*I'B	*	*	*I'T	*	*	*I'V 5	*	*	*I'A	*	*	*I'S	*	*
*mI'B	*	*	*mI'T II	*	*	*mI'T I	*	*	*mI'A	*	*	*mI'S	*	*
*Ibass	*	*	*Itenor	*	*	*Ialto	*	*	*Ialto	*	*	*Isoprn	*	*
*ICvox	*	*	*ICvox	*	*	*ICvox	*	*	*ICvox	*	*	*ICvox	*	*
*clefF4	*	*	*clefC4	*	*	*clefC3	*	*	*clefC3	*	*	*clefC1	*	*
*	*	*	*mclefGv2	*	*	*mclefGv2	*	*	*mclefG2	*	*	*mclefG2	*	*
*k[]	*	*	*k[]	*	*	*k[]	*	*	*k[]	*	*	*k[]	*	*
*G:mix	*	*	*G:mix	*	*	*G:mix	*	*	*G:mix	*	*	*G:mix	*	*
*M2/1	*	*	*M2/1	*	*	*M2/1	*	*	*M2/1	*	*	*M2/1	*	*
*met(C|)	*	*	*met(C|)	*	*	*met(C|)	*	*	*met(C|)	*	*	*met(C|)	*	*
*mmet(c|)	*	*	*mmet(c|)	*	*	*mmet(c|)	*	*	*mmet(c|)	*	*	*mmet(c|)	*	*
=1-	=1-	=1-	=1-	=1-	=1-	=1-	=1-	=1-	=1-	=1-	=1-	=1-	=1-	=1-
00r	.	.	1r	.	.	0r	.	.	1r	.	.	1g	GRa-	Gra-
.	.	.	2r	.	.	.	.	.	2r	.	.	1g	-tie	-tie
.	.	.	2G/	Ren-	ren-	.	.	.	2g\	Ren-	ren-	.	.	.
=2-	=2-	=2-	=2-	=2-	=2-	=2-	=2-	=2-	=2-	=2-	=2-	=2-	=2-	=2-
.	.	.	2B\	-da al	-da al	1g	GRa-	Gra-	2d\	-da al	-da al	1r	.	.
.	.	.	2c\	ſi-	Si-	.	.	.	2e\	ſi-	Si-	.	.	.
.	.	.	2G/	-gnor	-gnor,	2g\	-tie	-tie	1d	-gnor	-gnor,	2r	.	.
.	.	.	2d\	ren-	ren-	2G/	re(n)-	re(n)-	.	.	.	2g/	ren-	ren-
=3-	=3-	=3-	=3-	=3-	=3-	=3-	=3-	=3-	=3-	=3-	=3-	=3-	=3-	=3-
1G	GRa-	Gra-	2d\	-da al	-da al	2B/	-da al	-da al	1g	Gra-	gra-	2d/	-da al	-da al
.	.	.	2c\	ſi-	Si-	2c/	ſi-	Si-	.	.	.	2e/	ſi-	Si-
2G\	-tie	-tie	1B	-gnor	-gnor,	1d	-gnor	-gnor,	2g\	-tie	-tie	2d/	-gnor	-gnor,
*	*	*	*	*	*	*	*	*	*	*	*	*	*ij	*ij
2GG/	re(n)-	re(n)-	.	.	.	.	.	.	2g\	ren-	ren-	2dd\	ren-	ren-
=4-	=4-	=4-	=4-	=4-	=4-	=4-	=4-	=4-	=4-	=4-	=4-	=4-	=4-	=4-
2BB/	-da al	-da al	1G	Gra-	gra-	1g	Gra-	gra-	2d\	-da al	-da al	2dd\	-da al	-da al
2C/	ſi-	Si-	.	.	.	.	.	.	2e\	ſi-	Si-	2cc\	ſi-	Si-
2GG/	-gnor	-gnor,	2G/	-tie	-tie	2g\	-tie	-tie	1d	-gnor	-gnor,	1b	-gnor	-gnor,
*	*	*	*	*	*	*	*	*	*	*	*	*	*Xij	*Xij
2G\	ren-	ren-	2B\	ren-	ren-	2d\	ren-	ren-	.	.	.	.	.	.
=5-	=5-	=5-	=5-	=5-	=5-	=5-	=5-	=5-	=5-	=5-	=5-	=5-	=5-	=5-
2D/	-da al	-da al	2A/	-da al	-da al	2f#X\	-da al	-da al	2d\	me-	me-	2r	.	.
2E\	ſi-	Si-	2G/	ſi-	Si-	2g\	ſi-	Si-	1c	-co	-co	2e/	ren-	ren-
0D	-gnor	-gnor,	1d	-gnor	-gnor,	2a\	-gnor	-gnor,	.	.	.	2f#X/	-da al	-da al
*	*	*	*	*	*	*	*	*	*custos:B	*	*	*	*	*
!	!	!	!	!	!	!	!	!	!LO:LB:g=original	!	!	!	!	!
.	.	.	.	.	.	1g\	me-	me-	2B/	la	la	2g/	ſi-	Si-
*	*	*	*custos:d	*	*	*	*	*	*	*	*	*	*	*
!	!	!	!LO:LB:g=original	!	!	!	!	!	!	!	!	!	!	!
=6-	=6-	=6-	=6-	=6-	=6-	=6-	=6-	=6-	=6-	=6-	=6-	=6-	=6-	=6-
.	.	.	2r	.	.	.	.	.	1A	ter-	ter-	1a	-gnor	-gnor,
!	!	!	!	!	!	!LO:SIC:v:s=1f#	!	!	!	!	!	!	!	!
.	.	.	1d	me-	me-	1fny	-co	-co	.	.	.	.	.	.
2BB/	me-	me-	.	.	.	.	.	.	0G	-ra	-ra,	2d/	me-	me-
1C/	-co	-co	1c\	-co	-co	1e\	la	la	.	.	.	2g/	-co	-co
*	*	*	*	*	*	*	*	*	*	*	*	*custos:e	*	*
!	!	!	!	!	!	!	!	!	!	!	!	!LO:LB:g=original	!	!
=7-	=7-	=7-	=7-	=7-	=7-	=7-	=7-	=7-	=7-	=7-	=7-	=7-	=7-	=7-
.	.	.	.	.	.	.	.	.	.	.	.	2e/	la	la
*	*	*	*	*	*	*custos:d	*	*	*	*	*	*	*	*
!	!	!	!	!	!	!LO:LB:g=original	!	!	!	!	!	!	!	!
2GG/	la	la	2B\	la	la	2.d\	ter-	ter-	.	.	.	2.g/	ter-	ter-
1D	ter-	ter-	1A	ter-	ter-	.	.	.	2r	.	.	.	.	.
.	.	.	.	.	.	8c/	.	.	.	.	.	8f#X/	.	.
.	.	.	.	.	.	8B/	.	.	.	.	.	8e/	.	.
!	!	!	!	!	!	!	!	!	!	!	!	!LO:SIC:s=2f#/	!	!
.	.	.	.	.	.	2A/	.	.	2.d\	Poi	Poi	2f#X/	.	.
*custos:GG	*	*	*	*	*	*	*	*	*	*	*	*	*	*
!LO:LB:g=original	!	!	!	!	!	!	!	!	!	!	!	!	!	!
=8-	=8-	=8-	=8-	=8-	=8-	=8-	=8-	=8-	=8-	=8-	=8-	=8-	=8-	=8-
2GG/	-ra	-ra,	2G/	-ra	-ra,	1B	-ra	-ra,	.	.	.	1g	-ra	-ra,
.	.	.	.	.	.	.	.	.	4d\	ch’è	ch’è	.	.	.
2.G\	Poi	Poi	2.B\	Poi	Poi	.	.	.	2d\	ſgom-	sgom-	.	.	.
.	.	.	.	.	.	2r	.	.	2e\	-bro	-bro	2r	.	.
4G\	ch’e	ch’è	4B\	ch’è	ch’è	.	.	.	.	.	.	.	.	.
2G\	sgom-	sgom-	2B\	ſgom-	sgom-	2.d\	Poi	Poi	2d\	da	da	2.dd\	Poi	Poi
=9-	=9-	=9-	=9-	=9-	=9-	=9-	=9-	=9-	=9-	=9-	=9-	=9-	=9-	=9-
2F\	-bro	-bro	2A/	-bro	-bro	.	.	.	2a\	me	me	.	.	.
.	.	.	.	.	.	4d\	ch’e	ch’è	.	.	.	4dd\	ch’è	ch’è
2G\	da	da	2B\	da	da	2d\	ſgom-	sgom-	2g\	l’in-	l’in-	2dd\	ſgom-	sgom-
2C/	me	me	1.G	me	me	2c/	-bro	-bro	2.g\	-ter-	-ter-	2ee\	-bro	-bro
2BB/	l’in-	l’in-	.	.	.	2d\	da	da	.	.	.	2dd\	da	da
.	.	.	.	.	.	.	.	.	4f\	.	.	.	.	.
=10-	=10-	=10-	=10-	=10-	=10-	=10-	=10-	=10-	=10-	=10-	=10-	=10-	=10-	=10-
2.C/	-ter-	-ter-	.	.	.	1G	me	me	4e\	.	.	2cc\	me	me
.	.	.	.	.	.	.	.	.	4d\	.	.	.	.	.
.	.	.	2E/	l’in-	l’in-	.	.	.	1c	.	.	2g/	l’in-	l’in-
4BB/	.	.	.	.	.	.	.	.	.	.	.	.	.	.
2AA/	.	.	1.E	-ter-	-ter-	2r	.	.	.	.	.	2a\	-ter-	-ter-
2GG#X/	-no	-no	.	.	.	2e\	l’in-	l’in-	2B/	-no	-no	2b\	-no	-no
=11-	=11-	=11-	=11-	=11-	=11-	=11-	=11-	=11-	=11-	=11-	=11-	=11-	=11-	=11-
0AA	ghiac-	ghiac-	.	.	.	2e\	-ter-	-ter-	0A	ghiac-	ghiac-	2cc#X\	ghiac-	ghiac-
.	.	.	2F/	-no	-no	2d\	-no	-no	.	.	.	2.dd\	.	.
.	.	.	1E	ghiac-	ghiac-	1e	ghiac-	ghiac-	.	.	.	.	.	.
!	!	!	!	!	!	!	!	!	!	!	!	!LO:SIC:s=8cc#\	!	!
.	.	.	.	.	.	.	.	.	.	.	.	8cc#X\	.	.
.	.	.	.	.	.	.	.	.	.	.	.	8b\	.	.
!	!	!	!	!	!	!	!	!	!	!	!	!LO:SIC:s=2cc#\	!	!
.	.	.	.	.	.	.	.	.	.	.	.	2cc#X\	.	.
*	*	*	*	*	*	*	*	*	*	*	*	*custos:dd	*	*
!	!	!	!	!	!	!	!	!	!	!	!	!LO:LB:g=original	!	!
=12-	=12-	=12-	=12-	=12-	=12-	=12-	=12-	=12-	=12-	=12-	=12-	=12-	=12-	=12-
1D	-cio	-cio:	1D	-cio	-cio:	2f#X\	-cio	-cio:	1A	-cio	-cio:	2dd\	-cio	-cio:
.	.	.	.	.	.	4r	.	.	.	.	.	4r	.	.
!	!	!	!	!	!	!LO:SIC:s=4f#\	!	!	!	!	!	!	!	!
.	.	.	.	.	.	4f#X\	Gio-	Gio-	.	.	.	4a\	Gioi-	Gio-
1r	.	.	1r	.	.	4g\	-i-	-i-	2r	.	.	4b\	-ſca	-i-
.	.	.	.	.	.	4e\	-ſca il	-sca il	.	.	.	4g/	il	-sca il
*	*	*	*	*	*	*custos:f	*	*	*	*	*	*	*	*
!	!	!	!	!	!	!LO:LB:g=original	!	!	!	!	!	!	!	!
.	.	.	.	.	.	4f#\	mio	mio	2d\	gio-	Gio-	4a\	mio	mio
.	.	.	.	.	.	4d\	de-	de-	.	.	.	4b\	de-	de-
=13-	=13-	=13-	=13-	=13-	=13-	=13-	=13-	=13-	=13-	=13-	=13-	=13-	=13-	=13-
0r	.	.	0r	.	.	2c/	-ſio	-sir,	4e\	-i-	-i-	4ccny\	-ſir	-sir,
*	*	*	*	*	*	*	*	*	*custos:c	*	*	*	*	*
!	!	!	!	!	!	!	!	!	!LO:LB:g=original	!	!	!	!	!
.	.	.	.	.	.	.	.	.	8c\	-ſca	-sca,	4ee\	gio-	gio-
.	.	.	.	.	.	.	.	.	8d\	.	.	.	.	.
.	.	.	.	.	.	2c/	gio-	gio-	8e\	.	.	8ee\	-i-	-i-
.	.	.	.	.	.	.	.	.	8f\	.	.	8dd\	.	.
.	.	.	.	.	.	.	.	.	8g\	.	.	8cc\	.	.
.	.	.	.	.	.	.	.	.	8e\	.	.	8b\	.	.
.	.	.	.	.	.	4d\	-i-	-i-	4f#X\	.	.	4a\	.	.
.	.	.	.	.	.	4e\	-ſca	-sca	2g\	l’al-	l’al-	4g/	-ſca	-sca
.	.	.	.	.	.	2d\	l’al-	l’al-	.	.	.	2a\	l’al-	l’al-
!	!	!	!	!	!	!	!	!	!LO:SIC:s=4f#\	!	!	!	!	!
.	.	.	.	.	.	.	.	.	4f#X\	.	.	.	.	.
=14-	=14-	=14-	=14-	=14-	=14-	=14-	=14-	=14-	=14-	=14-	=14-	=14-	=14-	=14-
2r	.	.	2r	.	.	2G/	-ma	-ma,	1g	-ma	-ma,	1b	-ma	-ma,
2G\	E	E	2B\	E	E	2d\	E	E	.	.	.	.	.	.
2E\	ſe-	se-	2c\	ſe-	se-	2e\	ſe-	se-	2r	.	.	2r	.	.
2G\	-co a-	-co a[b]-	2B\	-co a-	-co a[b]-	2d\	-co a-	-co a[b]-	2g\	E	E	2dd\	E	E
*	*	*	*custos:g	*	*	*	*	*	*	*	*	*	*	*
!	!	!	!LO:LB:g=original	!	!	!	!	!	!	!	!	!	!	!
=15-	=15-	=15-	=15-	=15-	=15-	=15-	=15-	=15-	=15-	=15-	=15-	=15-	=15-	=15-
2C/	-hor-	-bon-	1g	-bon-	bon-	2c/	-bon-	-bon-	2e\	ſe-	se-	2ee\	ſe-	se-
*custos:G	*	*	*	*	*	*	*	*	*	*	*	*	*	*
!LO:LB:g=original	!	!	!	!	!	!	!	!	!	!	!	!	!	!
2G\	-di	di	.	.	.	2B/	-di	-di	2g\	-co	-co	2dd\	-co a-	-co a[b]-
4A\	di	di	1e	-di	-di	4c/	di	di	1c	a-	a[b]-	1cc	-bon-	-bon-
4B\	le-	le-	.	.	.	4d\	le-	le-	.	.	.	.	.	.
4c\	-ti-	-ti-	.	.	.	4e\	-ti-	-ti-	.	.	.	.	.	.
4A\	-tia il	-tia il	.	.	.	4c/	-tia il	-tia il	.	.	.	.	.	.
=16-	=16-	=16-	=16-	=16-	=16-	=16-	=16-	=16-	=16-	=16-	=16-	=16-	=16-	=16-
2G\	co-	co-	4B\	di	di	2d\	co-	co-	1g	-bon-	-bon-	1b	-di	-di
.	.	.	4c\	le-	le-	.	.	.	.	.	.	.	.	.
4G\	-re	-re,	4d\	-ti-	-ti-	4d\	-re	-re,	.	.	.	.	.	.
4G\	E	E	4B\	-tia il	-tia il	4g\	E	E	.	.	.	.	.	.
1A	ſe-	se-	2c\	co-	co-	1e	ſe-	se-	4c/	-di	-di	4a\	di	di
.	.	.	.	.	.	.	.	.	4d\	le-	le-	4b\	le-	le-
.	.	.	2A/	-re	-re,	.	.	.	4e\	-ti-	-ti-	4cc\	-ti-	-ti-
.	.	.	.	.	.	.	.	.	4c/	-tia il	-tia il	4a\	-tia il	-tia il
*	*	*	*	*	*	*custos:g	*	*	*	*	*	*custos:dd	*	*
!	!	!	!	!	!	!LO:LB:g=original	!	!	!	!	!	!LO:LB:g=original	!	!
=17-	=17-	=17-	=17-	=17-	=17-	=17-	=17-	=17-	=17-	=17-	=17-	=17-	=17-	=17-
1G	-co a-	-co a[b]-	4B\	di	di	1g	-co a-	-co a[b]-	2d\	co-	co-	2dd\	co-	co-
.	.	.	4c\	le-	le-	.	.	.	.	.	.	.	.	.
.	.	.	4d\	-ti-	-ti-	.	.	.	2d\	-re	-re,	2g/	-re	-re,
.	.	.	4B\	-tia il	-tia il	.	.	.	.	.	.	.	.	.
*	*	*	*	*	*	*	*	*	*custos:f	*	*	*	*	*
!	!	!	!	!	!	!	!	!	!LO:LB:g=original	!	!	!	!	!
1F	-hon-	-bon-	2c\	co-	co-	1c	-bon-	-bon-	4fny\	di	di	4a\	di	di
.	.	.	.	.	.	.	.	.	4g\	le-	le-	4b\	le-	le-
.	.	.	2A/	-re	-re,	.	.	.	4a\	-ti-	-ti-	4cc\	-ti-	-ti-
.	.	.	.	.	.	.	.	.	4A/	-tia il	-tia il	4dd\	-tia il	-tia il
=18-	=18-	=18-	=18-	=18-	=18-	=18-	=18-	=18-	=18-	=18-	=18-	=18-	=18-	=18-
1E	-di	-di	4G/	di	di	1g	-di	-di	2B/	co-	co-	2ee\	co-	co-
.	.	.	4A/	le-	le-	.	.	.	.	.	.	.	.	.
.	.	.	4B\	-ti-	-ti-	.	.	.	4B/	-re	-re,	2b\	-re	-re,
.	.	.	4G/	-tià il	-tia il	.	.	.	4g\	E	E	.	.	.
4A\	di	di	2c\	co-	co-	4c/	di	di	1e	ſe-	se-	2r	.	.
4B\	le-	le-	.	.	.	4d\	le-	le-	.	.	.	.	.	.
4c\	-ti-	-ti-	2c\	-re	-re,	4e\	-ti-	-ti-	.	.	.	4g/	di	di
4A\	-tia il	-tia il	.	.	.	4c/	-tia il	-tia il	.	.	.	4a\	le-	le-
*	*	*	*custos:G	*	*	*	*	*	*	*	*	*	*	*
!	!	!	!LO:LB:g=original	!	!	!	!	!	!	!	!	!	!	!
=19-	=19-	=19-	=19-	=19-	=19-	=19-	=19-	=19-	=19-	=19-	=19-	=19-	=19-	=19-
2G\	co-	co-	4G/	di	di	2d\	co-	co-	1g	-co o-	-co a[b]-	4b\	-ti-	-ti-
.	.	.	4A/	le-	le-	.	.	.	.	.	.	4cc\	-tià il	-tia il
2G\	-re	-re,	4B\	-ti-	-ti-	2d\	-re	-re,	.	.	.	2dd\	co-	co-
.	.	.	4B\	-tia il	-tia il	.	.	.	.	.	.	.	.	.
4A\	di	di	2e\	co-	co-	2r	.	.	1c	-bon-	-bon-	2cc\	-re	-re,
4B\	le-	le-	.	.	.	.	.	.	.	.	.	.	.	.
*	*	*	*	*	*	*	*	*	*	*	*	*	*ij	*ij
4c\	-ti-	-ti-	2c\	-re	-re,	4e\	di	di	.	.	.	4g/	di	di
4A\	-tia il	-tia il	.	.	.	4c/	le-	le-	.	.	.	4a\	le-	le-
*custos:G	*	*	*	*	*	*	*	*	*	*	*	*	*	*
!LO:LB:g=original	!	!	!	!	!	!	!	!	!	!	!	!	!	!
=20-	=20-	=20-	=20-	=20-	=20-	=20-	=20-	=20-	=20-	=20-	=20-	=20-	=20-	=20-
2G\	co-	co-	2r	.	.	4d\	-ti-	-ti-	1g	-di	-di	4b\	-ti-	-ti-
.	.	.	.	.	.	4c/	-tia il	-tia il	.	.	.	4a\	-tià il	-tia il
2G\	-re	-re,	2.d\	di	di	2B/	co-	co-	.	.	.	2g/	co-	co-
4D/	di	di	.	.	.	1A	-re	-re.	4f\	di	di	1a	-re	-re.
*	*	*	*	*	*	*	*	*	*	*	*	*	*Xij	*Xij
4E\	le-	le-	4c\	le-	le-	.	.	.	4e\	le-	le-	.	.	.
4F\	-ti-	-ti-	4A/	-ti-	-ti-	.	.	.	4c/	-ti-	-ti-	.	.	.
4D/	-tia il	-tia il	4B\	-tia il	-tia il	.	.	.	4d\	-tia il	-tia il	.	.	.
=21-	=21-	=21-	=21-	=21-	=21-	=21-	=21-	=21-	=21-	=21-	=21-	=21-	=21-	=21-
1C	co-	co-	1c	co-	co-	2r	.	.	1e	co-	co-	2r	.	.
.	.	.	.	.	.	1e	Pio-	Pio-	.	.	.	1fny	Pio-	Pio-
0.C	-re	-re.	1G	-re	-re.	.	.	.	1c	-re	-re.	.	.	.
.	.	.	.	.	.	4c/	-uan	-van	.	.	.	4e/	-uan	-van
.	.	.	.	.	.	4d\	in	in	.	.	.	4f/	in	in
*	*	*	*	*	*	*	*	*	*	*	*	*custos:g	*	*
!	!	!	!	!	!	!	!	!	!	!	!	!LO:LB:g=original	!	!
=22-	=22-	=22-	=22-	=22-	=22-	=22-	=22-	=22-	=22-	=22-	=22-	=22-	=22-	=22-
.	.	.	2r	.	.	4.e\	co-	co-	2r	.	.	4.g/	co-	co-
.	.	.	.	.	.	8e\	-pia i	-pia i	.	.	.	8g/	-pia i	-pia i
*	*	*	*	*	*	*custos:e	*	*	*	*	*	*	*	*
!	!	!	!	!	!	!LO:LB:g=original	!	!	!	!	!	!	!	!
.	.	.	1e	Pio-	Pio-	4e\	mag-	mag-	1g	Pio-	Pio-	4g/	mag-	mag-
.	.	.	.	.	.	4d\	-gior	-gior	.	.	.	4f/	-gior	-gior
.	.	.	.	.	.	4c/	ben	ben	.	.	.	1e	ben	ben,
.	.	.	.	.	.	4c/	del	del	.	.	.	.	.	.
.	.	.	4c\	-uan	-van	2g\	cie-	cie-	4e\	-uan	-van	.	.	.
.	.	.	4d\	in	in	.	.	.	4f\	in	in	.	.	.
=23-	=23-	=23-	=23-	=23-	=23-	=23-	=23-	=23-	=23-	=23-	=23-	=23-	=23-	=23-
2r	.	.	4.e\	co-	co-	1c	-lo	-lo,	4.g\	co-	co-	2r	.	.
.	.	.	8e\	-pia i	-pia i	.	.	.	8g\	-pia i	-pia i	.	.	.
*	*	*	*	*	*	*	*	*	*custos:g	*	*	*	*	*
!	!	!	!	!	!	!	!	!	!LO:LB:g=original	!	!	!	!	!
1c	Pio-	Pio-	4e\	mag-	mag-	.	.	.	4g\	mag-	mag-	1ee	Pi-	pio-
.	.	.	4d\	-gior	-gior	.	.	.	4f\	-gior	-gior	.	.	.
*	*	*	*custos:c	*	*	*	*	*	*	*	*	*	*	*
!	!	!	!LO:LB:g=original	!	!	!	!	!	!	!	!	!	!	!
.	.	.	2c\	ben	ben,	2r	.	.	2e\	ben	ben	.	.	.
*	*	*	*	*	*	*	*ij	*ij	*	*	*	*	*	*
4A\	-uan	-van	1c\	Pio-	pio-	1e\	Pio-	pio-	2a\	del	del	4cc\	-uan	-van
4B\	in	in	.	.	.	.	.	.	.	.	.	4dd\	in	in
=24-	=24-	=24-	=24-	=24-	=24-	=24-	=24-	=24-	=24-	=24-	=24-	=24-	=24-	=24-
4.c\	co-	co-	.	.	.	.	.	.	2g\	cie-	cie-	4.ee\	co-	co-
8c\	-pia i	-pia i	.	.	.	.	.	.	.	.	.	8ee\	-pia i	-pia i
4c\	ma-	ma-	4A/	-uan	-van	4c/	-uan	-van	2a\	-lo	-lo,	4ee\	mag-	mag-
4B\	-gior	-gior	4B\	in	in	4d\	in	in	.	.	.	4dd\	-gior	-gior
1.A	be(n)	be(n)	4.c\	co-	co-	4.e\	co-	co-	4r	.	.	1.cc	ben	ben
.	.	.	.	.	.	.	.	.	4e\	del	del	.	.	.
.	.	.	8c\	-pia i	-pia i	8e\	-pia i	-pia i	.	.	.	.	.	.
.	.	.	4c\	mag-	mag-	4e\	mag-	mag-	2a\	cie-	cie-	.	.	.
.	.	.	4d\	-gior	-gior	4d\	-gior	-gior	.	.	.	.	.	.
=25-	=25-	=25-	=25-	=25-	=25-	=25-	=25-	=25-	=25-	=25-	=25-	=25-	=25-	=25-
.	.	.	4e\	ben	ben	2c/	ben	ben	1a	-lo	-lo,	.	.	.
.	.	.	2c\	del	del	.	.	.	.	.	.	.	.	.
2F\	del	del	.	.	.	2fny\	del	del	.	.	.	2cc\	del	del
.	.	.	2f\	cie-	cie-	.	.	.	.	.	.	.	.	.
1c	cie-	cie-	.	.	.	1g	cie-	cie-	1r	.	.	1cc	cie-	cie-
.	.	.	8e\	.	.	.	.	.	.	.	.	.	.	.
.	.	.	8d\	.	.	.	.	.	.	.	.	.	.	.
.	.	.	2e\	.	.	.	.	.	.	.	.	.	.	.
=26-	=26-	=26-	=26-	=26-	=26-	=26-	=26-	=26-	=26-	=26-	=26-	=26-	=26-	=26-
1F	-lo	-lo,	1c	-lo	-lo,	1a	-lo	-lo,	4r	.	.	4cc\	-lo	-lo,
*	*	*	*	*	*	*	*Xij	*Xij	*	*	*	*	*	*
.	.	.	.	.	.	.	.	.	4a\	Che	Che	4cc\	Che	Che
.	.	.	.	.	.	.	.	.	4f\	non	non	4a\	non	non
.	.	.	.	.	.	.	.	.	4e\	più	più	4a\	più	più
*	*	*	*	*	*	*	*	*	*	*	*	*custos:g	*	*
!	!	!	!	!	!	!	!	!	!	!	!	!LO:LB:g=original	!	!
2G\	Che	Che	4r	.	.	4r	.	.	2d\	van	van,	2g/	van	van,
.	.	.	4B\	Che	Che	4d\	Che	Che	.	.	.	.	.	.
*custos:E	*	*	*	*	*	*	*	*	*	*	*	*	*	*
!LO:LB:g=original	!	!	!	!	!	!	!	!	!	!	!	!	!	!
4E\	non	non	4c\	non	non	4e\	non	non	2r	.	.	2r	.	.
4D/	più	più	4d\	più	più	4f#X\	più	più	.	.	.	.	.	.
*	*	*	*	*	*	*custos:g	*	*	*	*	*	*	*	*
!	!	!	!	!	!	!LO:LB:g=original	!	!	!	!	!	!	!	!
=27-	=27-	=27-	=27-	=27-	=27-	=27-	=27-	=27-	=27-	=27-	=27-	=27-	=27-	=27-
2C/	van	van,	2e\	van	van,	2g\	van	van,	4r	.	.	4r	.	.
*	*	*	*	*	*	*	*	*	*	*ij	*ij	*	*	*
.	.	.	.	.	.	.	.	.	4G/	Che	che	4g/	Che	che
2r	.	.	2r	.	.	2r	.	.	4A/	non	non	4e/	non	non
.	.	.	.	.	.	.	.	.	4B/	più	più	4d/	più	più
*	*	*	*custos:E	*	*	*	*	*	*	*	*	*	*	*
!	!	!	!LO:LB:g=original	!	!	!	!	!	!	!	!	!	!	!
4r	.	.	4r	.	.	4r	.	.	2c/	van	van,	2c/	van	van,
*	*	*	*	*ij	*ij	*	*ij	*ij	*	*Xij	*Xij	*	*	*
4C/	Che	che	4E/	Che	che	4G/	Che	che	.	.	.	.	.	.
4AA/	non	non	4F/	non	non	4A/	non	non	2r	.	.	2r	.	.
4GGny/	più	più	4G/	più	più	4B/	più	più	.	.	.	.	.	.
=28-	=28-	=28-	=28-	=28-	=28-	=28-	=28-	=28-	=28-	=28-	=28-	=28-	=28-	=28-
0FF	van	van,	0A	van	van,	0c	van	van,	4r	.	.	4r	.	.
*	*	*	*	*Xij	*Xij	*	*Xij	*Xij	*	*	*	*	*ij	*ij
.	.	.	.	.	.	.	.	.	4c/	Che	che	4f/	Che	che
*	*	*	*	*	*	*	*	*	*custos:A	*	*	*	*	*
!	!	!	!	!	!	!	!	!	!LO:LB:g=original	!	!	!	!	!
.	.	.	.	.	.	.	.	.	4A/	non	non	4a\	non	non
.	.	.	.	.	.	.	.	.	4G/	più	più	4b\	più	più
.	.	.	.	.	.	.	.	.	2F/	van	van,	1cc	van	van,
*	*	*	*	*	*	*	*	*	*	*	*	*	*Xij	*Xij
.	.	.	.	.	.	.	.	.	1f\	ma	ma	.	.	.
=29-	=29-	=29-	=29-	=29-	=29-	=29-	=29-	=29-	=29-	=29-	=29-	=29-	=29-	=29-
1.C	ma	ma	1G	ma	ma	1.c	ma	ma	.	.	.	2r	.	.
.	.	.	.	.	.	.	.	.	4e\	.	.	1g	ma	ma
.	.	.	.	.	.	.	.	.	4d\	.	.	.	.	.
.	.	.	2E/	diu-	di-	.	.	.	2e\	di-	di-	.	.	.
2AA/	diu-	di-	1A\	-i-	-vi-	2c/	di-	di-	2e\	-ui-	-vi-	2a\	di-	di-
=30-	=30-	=30-	=30-	=30-	=30-	=30-	=30-	=30-	=30-	=30-	=30-	=30-	=30-	=30-
0E	-ino	-vi-	.	.	.	0B	-ui-	-vi-	0e	-no	-no	1.b	-ui-	-vi-
.	.	.	4G#X/	.	.	.	.	.	.	.	.	.	.	.
.	.	.	4F#X/	.	.	.	.	.	.	.	.	.	.	.
!	!	!	!LO:SIC:s=1G#	!	!	!	!	!	!	!	!	!	!	!
.	.	.	1G#X	-no	-no	.	.	.	.	.	.	.	.	.
.	.	.	.	.	.	.	.	.	.	.	.	2e/	-no	-no
=31-	=31-	=31-	=31-	=31-	=31-	=31-	=31-	=31-	=31-	=31-	=31-	=31-	=31-	=31-
1.D	è’l	n’è’l	1.A	è’l	è’l	0d	-no	-no	1.f#X	è’l	è’l	2r	.	.
.	.	.	.	.	.	.	.	.	.	.	.	1a	e’l	è’l
2BB/	mio	mio	2B\	mio	mio	.	.	.	2g\	mio	mio	2dd\	mio	mio
=32-	=32-	=32-	=32-	=32-	=32-	=32-	=32-	=32-	=32-	=32-	=32-	=32-	=32-	=32-
*lig	*	*	*	*	*	*	*	*	*	*	*	*	*	*
0C	fo-	fo-	1Gny	fo-	fo-	2r	.	.	4e\	fo-	fo-	4cc\	fe-	fo-
.	.	.	.	.	.	.	.	.	4fny\	.	.	4dd\	.	.
.	.	.	.	.	.	1e	è’l	è’l	4g\	.	.	4ee\	.	.
.	.	.	.	.	.	.	.	.	4f\	.	.	4dd\	.	.
.	.	.	2G/	-co	-co,	.	.	.	4e\	.	.	4cc\	.	.
.	.	.	.	.	.	.	.	.	4d\	.	.	4b\	.	.
*	*	*	*	*	*	*	*	*	*	*	*	*custos:a	*	*
!	!	!	!	!	!	!	!	!	!	!	!	!LO:LB:g=original	!	!
.	.	.	1c\	è’l	è’l	2e\	mio	mio	4c/	.	.	4a\	.	.
.	.	.	.	.	.	.	.	.	4B/	.	.	4g/	.	.
=33-	=33-	=33-	=33-	=33-	=33-	=33-	=33-	=33-	=33-	=33-	=33-	=33-	=33-	=33-
0D	.	.	.	.	.	0d	fo-	fo-	4A/	.	.	2f#X/	.	.
*Xlig	*	*	*	*	*	*	*	*	*	*	*	*	*	*
.	.	.	.	.	.	.	.	.	8B/	.	.	.	.	.
.	.	.	.	.	.	.	.	.	8c/	.	.	.	.	.
.	.	.	2B\	mio	mio	.	.	.	2.d\	.	.	2.g/	.	.
.	.	.	1A	fo-	fo-	.	.	.	.	.	.	.	.	.
!	!	!	!	!	!	!	!	!	!	!	!	!LO:SIC:s=8f#/	!	!
.	.	.	.	.	.	.	.	.	8c/	.	.	8f#X/	.	.
.	.	.	.	.	.	.	.	.	8B/	.	.	8e/	.	.
*	*	*	*	*	*	*	*	*	*custos:A	*	*	*	*	*
!	!	!	!	!	!	!	!	!	!LO:LB:g=original	!	!	!LO:SIC:s=2f#/	!	!
.	.	.	.	.	.	.	.	.	2A/	.	.	2f#X/	.	.
.	.	.	.	.	.	.	.	.	.	.	.	.	.	.
=34-	=34-	=34-	=34-	=34-	=34-	=34-	=34-	=34-	=34-	=34-	=34-	=34-	=34-	=34-
1GG	-co	-co,	1G	-co	-co,	1d	-co	-co,	4B/	-co	-co,	4g/	-co	-co,
.	.	.	.	.	.	.	.	.	4d\	Che	Che	4g/	Che	Che
.	.	.	.	.	.	.	.	.	4B/	non	non	4b\	non	non
.	.	.	.	.	.	.	.	.	4A/	piu	più	4cc\	più	più
4r	.	.	4r	.	.	4r	.	.	2G/	van	van,	2dd\	va(n)	va(n),
4G\	Che	Che	4B\	Che	Che	4d\	Che	Che	.	.	.	.	.	.
*	*	*	*custos:c	*	*	*	*	*	*	*	*	*	*	*
!	!	!	!LO:LB:g=original	!	!	!	!	!	!	!	!	!	!	!
4E\	non	non	4c\	non	non	4e\	non	non	2r	.	.	2r	.	.
4D/	piu	più	4d\	più	più	4f#X\	piu	più	.	.	.	.	.	.
*custos:C	*	*	*	*	*	*	*	*	*	*	*	*	*	*
!LO:LB:g=original	!	!	!	!	!	!	!	!	!	!	!	!	!	!
=35-	=35-	=35-	=35-	=35-	=35-	=35-	=35-	=35-	=35-	=35-	=35-	=35-	=35-	=35-
2C/	van	van,	2e\	van	van,	2g\	van	van,	4r	.	.	4r	.	.
.	.	.	.	.	.	.	.	.	4G/	Che	che	4g/	Che	che
2r	.	.	2r	.	.	2r	.	.	4A/	non	non	4e/	non	non
.	.	.	.	.	.	.	.	.	4B/	più	più	4d/	più	più
*	*	*	*	*	*	*custos:G	*	*	*	*	*	*	*	*
!	!	!	!	!	!	!LO:LB:g=original	!	!	!	!	!	!	!	!
4r	.	.	4r	.	.	4r	.	.	2c/	van	van,	2c/	van	van,
*	*	*	*	*ij	*ij	*	*ij	*ij	*	*	*	*	*	*
4C/	Che	che	4E/	Che	che	4G/	Che	che	.	.	.	.	.	.
4AA/	non	non	4Fny/	non	non	4A/	non	non	2r	.	.	2r	.	.
4GG/	Più	più	4G/	più	più	4B/	piu	più	.	.	.	.	.	.
=36-	=36-	=36-	=36-	=36-	=36-	=36-	=36-	=36-	=36-	=36-	=36-	=36-	=36-	=36-
0FF	van	van,	0A	van	van,	0c	van	van,	4r	.	.	4r	.	.
*	*	*	*	*Xij	*Xij	*	*Xij	*Xij	*	*ij	*ij	*	*ij	*ij
.	.	.	.	.	.	.	.	.	4c/	Che	che	4fny/	Che	che
.	.	.	.	.	.	.	.	.	4A/	non	non	4a\	non	non
.	.	.	.	.	.	.	.	.	4G/	più	più	4b\	più	più
.	.	.	.	.	.	.	.	.	2F/	van	van,	1cc	van	van,
*	*	*	*	*	*	*	*	*	*	*Xij	*Xij	*	*Xij	*Xij
.	.	.	.	.	.	.	.	.	1f\	ma	ma	.	.	.
*	*	*	*	*	*	*	*	*	*	*	*	*custos:g	*	*
!	!	!	!	!	!	!	!	!	!	!	!	!LO:LB:g=original	!	!
=37-	=37-	=37-	=37-	=37-	=37-	=37-	=37-	=37-	=37-	=37-	=37-	=37-	=37-	=37-
1.C	ma	ma	1G	ma	ma	1.c	ma	ma	.	.	.	2r	.	.
.	.	.	.	.	.	.	.	.	4e\	.	.	1g	ma	ma
.	.	.	.	.	.	.	.	.	4d\	.	.	.	.	.
.	.	.	2E/	diu-	di-	.	.	.	2e\	.	di-	.	.	.
2AA/	diui-	di-	1A\	-i	-vi-	2c/	di-	di-	2e\	di-	-vi-	2a\	di-	di-
*	*	*	*	*	*	*	*	*	*custos:e	*	*	*	*	*
!	!	!	!	!	!	!	!	!	!LO:LB:g=original	!	!	!	!	!
=38-	=38-	=38-	=38-	=38-	=38-	=38-	=38-	=38-	=38-	=38-	=38-	=38-	=38-	=38-
0E	-no	-vi-	.	.	.	0B	-ui-	-vi-	0e	-uino	-no	1.b	-ui-	-vi-
.	.	.	4G#X/	.	.	.	.	.	.	.	.	.	.	.
.	.	.	4F#X/	.	.	.	.	.	.	.	.	.	.	.
!	!	!	!LO:SIC:s=1G#	!	!	!	!	!	!	!	!	!	!	!
.	.	.	1G#X	.	-no	.	.	.	.	.	.	.	.	.
.	.	.	.	.	.	.	.	.	.	.	.	2e/	-no	-no
=39-	=39-	=39-	=39-	=39-	=39-	=39-	=39-	=39-	=39-	=39-	=39-	=39-	=39-	=39-
1.D	è’l	n’è’l	1.A	n’è’l	è’l	0d	-no	-no	1.f#X	è’l	è’l	2r	.	.
.	.	.	.	.	.	.	.	.	.	.	.	1a	e’l	è’l
.	.	.	.	.	.	.	.	.	.	.	.	.	.	.
2BB/	mio	mio	2B\	mio	mio	.	.	.	2g\	mio	mio	2dd\	mio	mio
=40-	=40-	=40-	=40-	=40-	=40-	=40-	=40-	=40-	=40-	=40-	=40-	=40-	=40-	=40-
*lig	*	*	*	*	*	*	*	*	*	*	*	*	*	*
0C	fo-	fo-	1Gny	fo-	fo-	2r	.	.	4e\	fo-	fo-	4cc\	fo-	fo-
.	.	.	.	.	.	.	.	.	4fny\	.	.	4dd\	.	.
.	.	.	.	.	.	1e	è’l	è’l	4g\	.	.	4ee\	.	.
.	.	.	.	.	.	.	.	.	4f\	.	.	4dd\	.	.
.	.	.	2G/	-co	-co,	.	.	.	4e\	.	.	4cc\	.	.
.	.	.	.	.	.	.	.	.	4d\	.	.	4b\	.	.
.	.	.	1c\	è’l	è’l	2e\	mio	mio	4c/	.	.	4a\	.	.
.	.	.	.	.	.	.	.	.	4B/	.	.	4g/	.	.
=41-	=41-	=41-	=41-	=41-	=41-	=41-	=41-	=41-	=41-	=41-	=41-	=41-	=41-	=41-
0D	.	.	.	.	.	0d	fo-	fo-	4A/	.	.	2f#X/	.	.
*Xlig	*	*	*	*	*	*	*	*	*	*	*	*	*	*
.	.	.	.	.	.	.	.	.	8B/	.	.	.	.	.
.	.	.	.	.	.	.	.	.	8c/	.	.	.	.	.
.	.	.	2B\	mio	mio	.	.	.	2.d\	.	.	2.g/	.	.
*	*	*	*custos:A	*	*	*	*	*	*	*	*	*	*	*
!	!	!	!LO:LB:g=original	!	!	!	!	!	!	!	!	!	!	!
.	.	.	1A	fo-	fo-	.	.	.	.	.	.	.	.	.
!	!	!	!	!	!	!	!	!	!	!	!	!LO:SIC:s=8f#/	!	!
.	.	.	.	.	.	.	.	.	8c/	.	.	8f#X/	.	.
.	.	.	.	.	.	.	.	.	8B/	.	.	8e/	.	.
!	!	!	!	!	!	!	!	!	!	!	!	!LO:SIC:s=2f#/	!	!
.	.	.	.	.	.	.	.	.	2A/	.	.	2f#X/	.	.
=42-	=42-	=42-	=42-	=42-	=42-	=42-	=42-	=42-	=42-	=42-	=42-	=42-	=42-	=42-
00GG	-co.	-co.	00G	-co.	-co.	00d	-co.	-co.	00B	-co.	-co.	00g	-co.	-co.
==	==	==	==	==	==	==	==	==	==	==	==	==	==	==
*-	*-	*-	*-	*-	*-	*-	*-	*-	*-	*-	*-	*-	*-	*-
!!!system-decoration: [s1,s2,s3,s4,s5]
!!!RDF**kern: l = terminal long
!!!ENC: Andrzej Gręziak
!!!END: 2022-06-28
!!!ENC: Urszula Świątek
!!!END: 2022-07-20
!!!ENC-modern: Katarzyna Serwa
!!!END-modern: 2022-08-16
!!!filter-modern: sic -sq | shed -e "s/LO:DY:(a|b|rj)/LO:dy:$1/L" | autostem -r | tie -s | shed -e "s/-//B" | shed -k -e "s/[<>]//g" | shed -e "s/^custos:/Xcustos:/I" | shed -e "s/TX(.*):t=P:/tx$1:t=P:/LG" | shed -e "s/^(\d+[\/\\]right)/$1yy/I; s/^(\d+[\/\\]left)/$1yy/I" | humtr -p | modori -m
